svg/vector_polygon_variant.svg

<svg xmlns="http://www.w3.org/2000/svg" viewBox="0 0 24 24"><path d="M22 8V2h-6v3.8L14.4 8H9.6L8 5.8V2H2v6h2v8H2v6h6v-2h8v2h6v-6h-2V8zm-11 2h2v2h-2zM4 4h2v2H4zm2 16H4v-2h2zm10-2H8v-2H6V8h1.1L9 10.6V14h6v-3.4L16.9 8H18v8h-2zm4 2h-2v-2h2zM18 6V4h2v2z"/></svg>

<svg xmlns="http://www.w3.org/2000/svg" id="mdi-vector-polygon-variant" viewBox="0 0 24 24"><path d="M22 8V2H16V5.8L14.4 8H9.6L8 5.8V2H2V8H4V16H2V22H8V20H16V22H22V16H20V8H22M11 10H13V12H11V10M4 4H6V6H4V4M6 20H4V18H6V20M16 18H8V16H6V8H7.1L9 10.6V14H15V10.6L16.9 8H18V16H16V18M20 20H18V18H20V20M18 6V4H20V6H18Z" /></svg>
